X:121
T:I'll Go Home in the Morning and Carry a Wife from Ross
B:Joyce, P. W.; "Old Irish Folk Music and Songs"
R:song air
L:1/8
M:6/8
Z:Allan Garvin
K:C
c/d/|e2 e d2 e|c2 A dcA|G^FG A2 A|(A3 A2) G|A2 A c2 d|
e2 a g2 a|e2 e dcd|(e3 e2) B|A2 A c2 d|e2 a g2 a|
e2 e dcB|(c3 c2) d|e2 e d2 e|c2 A dcA|G^FG A2 A|(A3 A2)||
